X:1
T:Amor mi fa morire
T:Adriaan Willaert
T:B.Dragonetto
T:Amor mi fa morire
C:Adriaan Willaert
%%score [ 1 2 3 4 ]
L:1/8
Q:1/4=96
M:2/2
K:Eb
V:1 treble nm="Soprano" snm="S"
V:2 alto2 nm="Alto" snm="A"
V:3 alto nm="Tenor" snm="T"
V:4 tenor nm="Bass" snm="B"
V:1
 z8 | B8 | c6 c2 | _d2 B2 c4 | B4 =B4 | c6 A2 | B2 c2 A4 | G8 | z2 A2 G2 A2- | AG G4 F2 | G8 | %11
w: |A-|mor mi|fa mo- ri-|re, E|pur il|vo se- gui-|re,|e pur il|_ _ vo se-|gui-|
 G8- | G4 z4 | z2 c2 c2 B2 | c2 d2 e3 e | d2 B2 c4 | B8- | B4 z2 c2 | c2 A2 B2 B2 | c3 B A2 G2 | %20
w: re.|_|Non è gran|duol il mio te-|na- ceße for-|te|_ Co-|no- scer ch'io vo|die- troßa la mia|
 A4 G4 | E4 F2 G2 | F2 F2 D4 | C8 | z4 c4- | c4 d4 | c2 c4 B2 | c4 B4- | B4 z4 | z8 | z8 | %31
w: mor- te,|vo die- troßa|la mia mor-|te.|Sot-|* to|ch'a- cer- ba|sor- te|_|||
 z2 e4 d2 | c2 B4 A2 | B2 c4 B2- | B2 A2 B4 | B4 e4 | d2 c2 B4 | z8 | z4 z2 B2- | B2 A2 G2 F2- | %40
w: Na- cqui|nel mon- do|che mo- rir|_ mi sen-|to, E|d'ab- brac- ciar,||e|_ d'ab- brac- ciar|
 F2 E2 F2 G2- | G2 F4 =E2 | F4 F4 | z4 G4- | G2 A2 B2 c2- | c2 c2 c2 B2 | c2 d2 e4 | d4 z2 e2- | %48
w: _ mi pia- ce'l|_ mio tor-|men- to.|Deh|_ voi ch'u- di-|* te'l mio gra-|ve la- men-|to Di-|
 e2 d2 c2 B2- | B2 A2 B2 c2- | c2 B4 =A2 | B4 B4 | z2 B2 c3 A | B2 c2 A4 | G8- | G4 z4 | z8 | %57
w: * te per dio,|_ se'l dir non|_ v'e mo-|le- sto,|Non è mi-|ra- col que-|sto|_||
 z2 G4 e2- | e2 d2 c2 d2- | dc c4 =B2 | z2 c2 c2 A2 | B2 c2 A4 | G8 | z2 A2 G2 A2- | AG G4 F2 | %65
w: Ch'A- mor|_ mi fa mo-|* * ri- re,|E pur il|vo se- gui-|re,|il vo se-|* * gui- *|
 G2 B2 c2 e2- | ed d2 c2 d2- | dc c4 =B2 | c8- | c8- | c8 |] %71
w: re, e pur il|_ _ vo se- gui-||re.|_||
V:2
 z8 | G8 | A6 A2 | F2 G2 A4 | G4 z4 | =E4 F4 | G2 E4 D2 | E4 D4 | z2 F2 E2 C2 | E4 C3 D | %10
w: |A-|mor mi|fa mo- ri-|re,|E pur|il vo se-|gui- re,|e pur il|vo se- *|
 E3 D/C/ B,2 E2 | D4 z4 | z4 z2 G2 | G2 F2 G4 | z2 G2 G2 A2 | B2 G2 A2 A2 | F2 G2 F4 | G4 E4 | %18
w: gui- * * * *|re.|Non|è gran duol,|non è gran|duol il mio te-|na- ceße for-|* te|
 z2 F2 G2 G2 | A2 G2 F2 E2 | C2 D2 E4 | E2 C3 DEC | D2 C4 =B,2 | C4 G,4- | G,4 G4 | A2 A2 F2 G2 | %26
w: Co- no- scer|ch'io vo die- troßa|la mia mor-|te, troßa _ _ _|_ la mia|mor- te.|_ Sot-|to ch'a- cer- ba|
 A4 G4 | z2 E4 G2 | G2 F4 E2 | z4 z2 E2- | E2 E2 D2 C2 | G4 F2 F2 | F2 D2 F4 | G2 A4 G2 | %34
w: sor- te|Na- cqui|nel mon- do|che|_ mo- rir mi|sen- to, na-|cqui nel mon-|do che mo-|
 F2 E2 F4 | G4 z2 B2- | B2 A2 G2 F2- | F2 E2 F2 G2- | G2 F4 =E2 | F2 F2 z2 C2 | B,2 C2 A,2 E2 | %41
w: rir mi sen-|to, E|_ d'ab- brac- ciar|_ mi pia- ce'l|_ mio tor-|men- to, mi|pia- ce'l mio tor-|
 EDCB, C4 | C8 | z4 E4 | E2 C2 G2 G2 | A6 G2 | A2 A2 B4 | B4 B4 | B2 B2 A2 G2 | G2 FE D2 C2 | %50
w: men- * * * *|to.|Deh|voi ch'u- di- te'l|mio gra-|ve la- men-|to Di-|te per dio, se'l|dir _ _ _ non|
 D2 E2 F4 | D2 F2 G2 E2 | F2 G2 A4 | G2 FE F4 | B,4 z2 C2 | B,2 G,2 A,2 B,2 | G,2 C4 B,2 | %57
w: v'e mo- le-|sto, Non è mi-|ra- col que-||sto Ch'A-|mor mi fa mo-|ri- * *|
 CDEF G2 G2 | B2 B2 A2 F2 | A4 G4 | z2 E2 F4 | G2 E4 D2 | E4 D4 | z2 F2 E2 C2 | E3 D CB, C2- | %65
w: re, _ _ _ _ ch'A-|mor mi fa mo-|ri- re,|E pur|il vo se-|gui- re,|il vo se-|gui- * * * *|
 CB, B,3 =A,A,G, | B,2 B2 A2 F2 | A4 G4 | z2 A2 A2 F2 | G2 A2 F4 | =E8 |] %71
w: |re, il vo se-|gui- re,|e pur il|vo se- gui-|re.|
V:3
 z8 | z4 E4- | E4 F4- | F2 D2 E2 F2 | D8 | C4 z4 | z8 | z4 B,4 | C6 A,2 | B,2 C2 A,4 | G,4 z2 C2 | %11
w: |A-|* mor|_ mi fa mo-|ri-|re,||E|pur il|vo se- gui-|re. Non|
 C2 B,2 C2 D2 | E3 D C2 B,2 | C4 D4 | z4 z2 E2 | F2 D2 E2 F2 | D2 E2 E2 D2 | E4 C2 E2- | EDDC E4 | %19
w: è gran duol il|mio te- na- ceße|for- te,|non|è gran duol il|mio te- na- ceße|for- te,e for-|* * * * te|
 z4 z2 C2 | C2 A,2 B,2 B,2 | C3 B, A,2 G,2 | A,4 G,4- | G,4 z4 | =E8 | F6 D2 | E2 F2 D4 | %27
w: Co-|no- scer ch'io vo|die- troßa la mia|mor- te.|_|Sot-|to ch'a-|cer- ba sor-|
 C4 z2 E2- | E2 D2 C2 B,2- | B,2 A,2 B,2 C2- | C2 B,4 =A,2 | B,4 B,4 | z2 B,2 C2 C2 | E4 E2 E2 | %34
w: * Na-|* cqui nel mon-|* do che mo-|* rir mi|sen- to,|na- cqui nel|mon- do che|
 D2 E4 D2 | E2 E2 G4 | F2 F2 D4 | z2 B,2 C2 E2 | D2 C2 B,4 | C4 B,2 A,2 | G,4 F,2 C2 | %41
w: mo- rir mi|sen- to, E|d'ab- brac- ciar,|e d'ab- brac-|ciar mi pia-|ce'l mio tor-|men- to, il|
 B,2 A,2 G,4 | F,8 | z4 B,4 | C2 A,2 E4 | C2 F4 D2 | F2 F2 G4 | F4 G4 | G2 G2 E2 D2 | E2 E2 F4 | %50
w: mio tor- men-|to.|Deh|voi ch'u- di-|te'l mio gra-|ve la- men-|to Di-|te per dio, se'l|dir non v'e|
 B,4 C4 | B,4 z4 | z2 D2 E2 F2- | FE E4 D2 | E8 | E4 z4 | z8 | z4 E4 | F6 D2 | E2 F2 D4 | C4 z4 | %61
w: mo- le-|sto,|Non è mi-|* ra- col _|que-|sto||Ch'A-|mor mi|fa mo- ri-|re,|
 z8 | z4 =B,4 | C6 A,2 | B,2 C2 A,4 | G,4 E4 | F6 D2 | E2 F2 D4 | C4 z2 A,2 | G,2 F,2 A,4 | G,8 |] %71
w: |E|pur il|vo se- gui-|re, e|pur il|vo se- gui-|re, il|vo se- gui-|re.|
V:4
 z8 | E,8 | A,4 z2 F,2 | B,2 B,2 A,2 F,2 | G,8 | C,4 z4 | E,4 F,2 F,2 | E,2 C,2 G,4 | F,4 z2 F,2 | %9
w: |A-|mor, A-|mor mi fa mo-|ri-|re,|E pur il|vo se- gui-|re, il|
 E,2 C,2 F,4 | C,2 E,2 E,2 C,2 | G,4 z2 G,2 | G,2 E,2 F,2 G,2 | A,4 G,4 | A,2 B,2 C4 | %15
w: vo se- gui-|re. Non è gran|duol, non|è gran duol il|mio te-|na- ceße for-|
 B,4 A,2 F,2 | B,2 E,2 B,4 | E,4 A,3 G, | F,4 E,4 | z2 E,2 F,2 C,2 | F,2 F,2 E,2 E,2 | %21
w: * te, te-|na- ceße for-|te,e for- *|* te|Co- no- scer|ch'io vo die- troßa|
 A,3 G, F,2 E,2 | F,4 G,4 | C,8- | C,8 | F,4 B,2 B,2 | A,2 F,2 G,4 | A,4 E,4 | B,4 A,2 G,2 | %29
w: la mia mor- *||te.|_|Sot- to ch'a-|cer- ba sor-|* te|Na- cqui nel|
 F,3 E, D,2 C,2 | A,2 G,2 F,4 | E,4 z2 B,,2 | F,2 G,2 F,4 | E,2 A,4 E,2 | B,2 C2 B,4 | E,8 | %36
w: mon- do che mo-|rir mi sen-|to, na-|cqui nel mon-|do che mo-|rir mi sen-|to,|
 z2 F,2 G,2 B,2 | A,2 G,2 F,2 C2 | B,2 A,2 G,4 | F,4 z4 | z2 C,2 _D,2 C,2 | E,2 F,2 C,4 | F,8 | %43
w: E d'ab- brac-|ciar mi pia- ce'l|mio tor- men-|to,|mi pia- ce'l|mio tor- men-|to.|
 z4 E,4 | C,2 F,2 E,2 C,2 | F,6 G,2 | F,2 F,2 E,4 | B,,4 E,4 | G,2 G,2 A,2 B,2 | C2 C2 B,2 A,2 | %50
w: Deh|voi ch'u- di- te'l|mio gra-|ve la- men-|to Di-|te per dio, se'l|dir non v'e mo-|
 G,4 F,4 | z8 | B,4 A,2 F,2 | G,2 A,2 F,4 | E,4 z4 | E,4 F,2 D,2 | E,2 F,2 D,4 | C,4 C4 | %58
w: le- sto,||Non è mi-|ra- col que-|sto|Ch'A- mor mi|fa mo- ri-||
 B,4 z2 B,2 | A,2 F,2 G,4 | C,4 z4 | E,4 F,2 F,2 | E,2 C,2 G,4 | F,4 z2 F,2 | E,2 C,2 F,4 | %65
w: re, mi|fa mo- ri-|re,|E pur il|vo se- gui-|re, e|pur il vo|
 E,3 D, C,4 | B,,4 z2 B,2 | A,2 F,2 G,4 | C,2 F,4 F,2 | E,2 F,3 E, F,2 | C,8 |] %71
w: se- * gui-|re, e|pur il vo,|e pur il|vo se- * gui-|re.|

